X:1
T:Amante Tradito II-Dunque il mio
T:Giovanni Stefani
T:Source : Affetti amorosi-Canzonette ad una voce sola---Venetia---A.Vincenti---1621. Editor : André Vierendeels (17/11/15).
T:Notes : Original clefs : C1, F4 Note value have been halved in 3-beat measures Alfabetto et intavolatura per chitarra Spagnola Terza impressione (first print : 1618) 
T:Dunque il mio fido- Amante tradito II
C:Giovanni Stefani
%%score 1 { ( 2 3 ) | 4 }
L:1/8
Q:1/4=75
M:4/4
K:C
V:1 treble nm="Soprano" snm="S"
V:2 treble nm="BC" snm="BC"
V:3 treble 
V:4 bass 
V:1
 d4 e2 GG | G2 G2 A4- | A4 z AAB | c2 B2 A4 | G8 :: z2 B3 B c2 | d4 z ccc | c2 c4 B2 | %8
w: Dun- que'il mio fi-|do'a- mo- re|_ t'u- sci cor|mio dal co-|re,|stol- to'e co-|lui ch'a bel- la|Don- na cre-|
w: Dun- que non pen-|s'in- gra- ta|_ quan- to tem-|po tho'a- ma-|ta,|ahi ch'a Don-|na leg- gia- dra'in|van- si spe-|
w: Dun- qu'ad al- tri'an-|cor- da- i|_ quel cor ch'a|me da- to|hai,|Don- na cor-|te- s'es- ser non|te'A- man- *|
w: Ma go- di pur|in pa- ce|_ con chi ti|pa- r'e pia-|ce,|Senz' il tuo'a-|mo- re'io- vi- vo'in|lie- to sta-|
[M:3/4] c4 e2 | d4 e2 | c4 A2 | B6 | B4 d2 | d4 d2 | d4 ^c2 | d4 d2 |[M:4/4] z4 d4 | c6 B2 | A8 | %19
w: de, che|quan- t'ha|piu bel-|lez-|za, che|quan- t'ha|piu bel-|lez- za,|ha|man- co|fe-|
w: ra, che|quan- t'è|piu leg-|gia-|dra, che|quan- t'è|piu leg-|gia- dra,|e|piu leg-|gie-|
w: te, che|quan- t'è|piu cor-|te-|se, che|quan- t'è|piu cor-|te- se,|e|men co-|stan-|
w: to, che|to- gli-|er non|mi|puoi,- che|to- gli-|er non|mi puoi,|quel|che m'hai|da-|
 G8 :| %20
w: de.|
w: ra.|
w: te.|
w: to.|
V:2
 B4 G4- | G4 ^F4- | F4 A3 G | A2 G2 ^F4 | G8 :: B6 c2 | A4 c4 | A4 d4 |[M:3/4] c6 | d4 c2 | c4 A2 | %11
 d6 | B4 G2 | B2 c2 d2 | A6 | A6 |[M:4/4] G8 | G4 c2 d2 | d8 | B8 :| %20
V:3
 D4 E4- | E4 D4- | D4 D3 D | F2 D2 D4 | D8 :: G6 G2 | ^F4 E4 | F2 G2 G4 |[M:3/4] E4 G2 | G4 G2 | %10
 E4 ^F2 | G6 | D4 B,2 | D6 | E6 | ^F6 |[M:4/4] D8 | E4 G4 | ^F2 G2 A2 F2 | G8 :| %20
V:4
 G,4 C,4- | C,2 B,,2 D,4- | D,4 D,3 G, | F,2 G,2 D,4 | G,,8 :: z2 G,3 G, E,2 | D,4 A,4 | %7
 F,2 E,2 G,4 |[M:3/4] C,4 C2 | B,4 C2 | A,4 D,2 | G,4 G,2 | G,4 G,2 | G,4 G,2 | A,6 | D,6 | %16
[M:4/4] B,,8 | C,8 | D,8 | G,,8 :| %20

